assets/img/book-open.svg

<svg xmlns="http://www.w3.org/2000/svg" width="149" height="150" viewBox="0 0 149 150">
  <defs>
    <linearGradient id="book-open-a" x1="0%" y1="0%" y2="95.386%">
      <stop offset="0%" stop-color="#072142"/>
      <stop offset="52.417%" stop-color="#8C2B7A"/>
      <stop offset="100%" stop-color="#FF4D5A"/>
    </linearGradient>
  </defs>
  <path fill="url(#book-open-a)" fill-rule="evenodd" d="M149,39.9452257 L149,137.308862 C149,144.191722 143.429883,149.79138 136.583333,149.79138 L12.4166667,149.79138 C5.57011667,149.79138 0,144.191722 0,137.308862 L0,39.9452257 C0,38.5671557 1.11253333,37.4487222 2.48333333,37.4487222 C3.85413333,37.4487222 4.96666667,38.5671557 4.96666667,39.9452257 L4.96666667,137.308862 C4.96666667,141.438079 8.30923333,144.798373 12.4166667,144.798373 L72.0166667,144.798373 L72.0166667,138.929093 C68.987,137.65338 61.2290667,134.812359 52.15,134.812359 C30.4407,134.812359 13.26845,139.660568 13.0971,139.708002 C12.8736,139.772911 12.6451333,139.805366 12.4166667,139.805366 C11.88275,139.805366 11.3562833,139.633107 10.9192167,139.301072 C10.3008667,138.829233 9.93333333,138.090268 9.93333333,137.308862 L9.93333333,27.4627082 C9.93333333,26.3492676 10.6684,25.3681417 11.73375,25.0635683 C12.4588833,24.853862 29.7106,19.9731977 52.15,19.9731977 C65.0062167,19.9731977 75.1829167,25.0161348 75.61005,25.2283375 C76.4519,25.6527431 76.9833333,26.5165334 76.9833333,27.4627082 L76.9833333,122.986421 C84.55005,118.657484 102.248767,108.988526 119.2,103.06682 L119.2,6.14756133 C100.94005,13.5297222 83.4499333,24.4694005 83.2661667,24.5867362 C82.1014833,25.3182117 80.5692667,24.9612117 79.8441333,23.792848 C79.1165167,22.6244844 79.4716333,21.0841417 80.6338333,20.3526662 C80.8349833,20.227841 100.94005,7.65045643 120.8092,0.158449437 C121.57655,-0.128648465 122.430817,-0.0212988146 123.09635,0.445547339 C123.76685,0.912393493 124.166667,1.67882007 124.166667,2.49767321 L124.166667,104.854317 C124.166667,105.93031 123.48375,106.881477 122.468067,107.223498 C100.629633,114.54075 76.0247667,129.315058 75.7789167,129.462352 C75.0115667,129.926701 74.053,129.939184 73.2757167,129.494806 C72.4984333,129.052925 72.0166667,128.221589 72.0166667,127.322848 L72.0166667,29.0804424 C68.9696167,27.7997362 61.2042333,24.9662047 52.15,24.9662047 C34.5059167,24.9662047 19.8592167,28.1692187 14.9,29.3950019 L14.9,134.095862 C20.9543667,132.65538 35.0448,129.819352 52.15,129.819352 C62.8382667,129.819352 71.6739667,133.30447 74.59685,134.602652 C77.8847833,133.391848 88.51345,129.819352 99.3333333,129.819352 C115.976633,129.819352 128.472767,132.508086 134.1,133.991009 L134.1,29.4923655 C133.2805,29.3275963 132.217633,29.1203865 130.94865,28.8857152 C129.6002,28.6360648 128.708683,27.3353865 128.957017,25.9772886 C129.20535,24.6241837 130.504133,23.7254424 131.847617,23.9750928 C135.175283,24.5892327 137.122217,25.0261208 137.122217,25.0261208 C138.259583,25.2782676 139.066667,26.291848 139.066667,27.4627082 L139.066667,137.308862 C139.066667,138.11024 138.684233,138.864184 138.036083,139.333526 C137.382967,139.802869 136.548567,139.927694 135.801083,139.678044 C135.654567,139.628114 120.96565,134.812359 99.3333333,134.812359 C90.0357333,134.812359 80.6040333,137.780701 76.9833333,139.053918 L76.9833333,144.798373 L136.583333,144.798373 C140.690767,144.798373 144.033333,141.438079 144.033333,137.308862 L144.033333,39.9452257 C144.033333,38.5671557 145.143383,37.4487222 146.516667,37.4487222 C147.88995,37.4487222 149,38.5671557 149,39.9452257 L149,39.9452257 Z M60.1662,46.3312816 C44.8316167,42.713848 27.4060667,47.3223935 26.6734833,47.5196173 C25.3498667,47.8766173 24.56265,49.2447012 24.9177667,50.5778341 C25.2157667,51.6937711 26.2190333,52.4277431 27.3141833,52.4277431 C27.52775,52.4277431 27.7438,52.4002816 27.95985,52.342862 C28.1262333,52.2954285 44.9036333,47.8591417 59.0338,51.1919739 C60.3623833,51.5040368 61.7058667,50.6727012 62.0187667,49.3295823 C62.3316667,47.9889599 61.5022333,46.645841 60.1662,46.3312816 L60.1662,46.3312816 Z M60.1662,61.3103026 C44.8316167,57.6953655 27.4060667,62.3014145 26.6734833,62.4986382 C25.3498667,62.8556382 24.56265,64.2237222 24.9177667,65.556855 C25.2157667,66.6727921 26.2190333,67.4067641 27.3141833,67.4067641 C27.52775,67.4067641 27.7438,67.3793026 27.95985,67.321883 C28.1262333,67.2744494 44.9036333,62.8381627 59.0338,66.1709949 C60.3623833,66.4830578 61.7058667,65.6517222 62.0187667,64.3086033 C62.3316667,62.9679809 61.5022333,61.624862 60.1662,61.3103026 L60.1662,61.3103026 Z M60.1662,76.2893236 C44.8316167,72.6743865 27.4060667,77.2779389 26.6734833,77.4776592 C25.3498667,77.8346592 24.56265,79.2027431 24.9177667,80.535876 C25.2157667,81.6518131 26.2190333,82.3882816 27.3141833,82.3882816 C27.52775,82.3882816 27.7438,82.3583236 27.95985,82.300904 C28.1262333,82.2534704 44.9036333,77.8171837 59.0338,81.1500159 C60.3623833,81.4620788 61.7058667,80.6307431 62.0187667,79.2876243 C62.3316667,77.9470019 61.5022333,76.603883 60.1662,76.2893236 L60.1662,76.2893236 Z M60.1662,91.2683445 C44.8316167,87.650911 27.4060667,92.2569599 26.6734833,92.4566802 C25.3498667,92.8136802 24.56265,94.1817641 24.9177667,95.514897 C25.2157667,96.6308341 26.2190333,97.3673026 27.3141833,97.3673026 C27.52775,97.3673026 27.7438,97.3373445 27.95985,97.279925 C28.1262333,97.2324914 44.9036333,92.7962047 59.0338,96.1290368 C60.3623833,96.4410998 61.7058667,95.6097641 62.0187667,94.2666452 C62.3316667,92.9260229 61.5022333,91.582904 60.1662,91.2683445 L60.1662,91.2683445 Z M60.1662,106.247366 C44.8316167,102.629932 27.4060667,107.238477 26.6734833,107.435701 C25.3498667,107.792701 24.56265,109.160785 24.9177667,110.493918 C25.2157667,111.609855 26.2190333,112.346324 27.3141833,112.346324 C27.52775,112.346324 27.7438,112.316366 27.95985,112.258946 C28.1262333,112.211512 44.9036333,107.775226 59.0338,111.108058 C60.3623833,111.417624 61.7058667,110.588785 62.0187667,109.245666 C62.3316667,107.905044 61.5022333,106.561925 60.1662,106.247366 L60.1662,106.247366 Z M84.7015333,100.994722 C85.1410833,101.858512 86.0152167,102.357813 86.91915,102.357813 C87.2966167,102.357813 87.6840167,102.270435 88.0441,102.085694 C88.1906167,102.010799 102.807517,94.5462536 110.016633,92.2569599 C111.322867,91.8400438 112.048,90.4370089 111.633283,89.123848 C111.22105,87.8106872 109.83535,87.0792117 108.5167,87.4936313 C100.922667,89.9077501 86.4051,97.3223655 85.7892333,97.636925 C84.5674333,98.2610508 84.0807,99.7639459 84.7015333,100.994722 L84.7015333,100.994722 Z M84.7015333,86.0157012 C85.1410833,86.8794914 86.0152167,87.3787921 86.91915,87.3787921 C87.2966167,87.3787921 87.6840167,87.2914145 88.0441,87.1066732 C88.1906167,87.0317781 102.807517,79.5672327 110.016633,77.2779389 C111.322867,76.8610229 112.048,75.4579879 111.633283,74.1448271 C111.22105,72.8316662 109.83535,72.1001907 108.5167,72.5146103 C100.922667,74.9287292 86.4051,82.3433445 85.7892333,82.657904 C84.5674333,83.2820299 84.0807,84.784925 84.7015333,86.0157012 L84.7015333,86.0157012 Z M84.7015333,71.0366802 C85.1410833,71.9004704 86.0152167,72.3997711 86.91915,72.3997711 C87.2966167,72.3997711 87.6840167,72.3123935 88.0441,72.1276522 C88.1906167,72.0527571 102.807517,64.5882117 110.016633,62.298918 C111.322867,61.8820019 112.048,60.4789669 111.633283,59.1658061 C111.22105,57.8526452 109.83535,57.1211697 108.5167,57.5355893 C100.922667,59.9497082 86.4051,67.3643236 85.7892333,67.678883 C84.5674333,68.3030089 84.0807,69.805904 84.7015333,71.0366802 L84.7015333,71.0366802 Z M84.7015333,56.0576592 C85.1410833,56.9214494 86.0152167,57.4207501 86.91915,57.4207501 C87.2966167,57.4207501 87.6840167,57.3333725 88.0441,57.1486313 C88.1906167,57.0737362 102.807517,49.6091907 110.016633,47.319897 C111.322867,46.9029809 112.048,45.4999459 111.633283,44.1867851 C111.22105,42.8736243 109.83535,42.1421487 108.5167,42.5565683 C100.922667,44.9706872 86.4051,52.3853026 85.7892333,52.699862 C84.5674333,53.3239879 84.0807,54.826883 84.7015333,56.0576592 L84.7015333,56.0576592 Z M86.91915,42.4417292 C87.2966167,42.4417292 87.6840167,42.3543515 88.0441,42.1696103 C88.1906167,42.0947152 102.807517,34.6301697 110.016633,32.340876 C111.322867,31.9239599 112.048,30.520925 111.633283,29.2077641 C111.22105,27.8946033 109.83535,27.1631278 108.5167,27.5775473 C100.922667,29.9916662 86.4051,37.4062816 85.7892333,37.720841 C84.5674333,38.3449669 84.0807,39.847862 84.7015333,41.0786382 C85.1410833,41.9424285 86.0152167,42.4417292 86.91915,42.4417292 L86.91915,42.4417292 Z"/>
</svg>

<svg xmlns="http://www.w3.org/2000/svg" width="149" height="150" xmlns:v="https://vecta.io/nano"><defs><linearGradient id="A" x1="0%" y1="0%" y2="95.386%"><stop offset="0%" stop-color="#072142"/><stop offset="52.417%" stop-color="#8c2b7a"/><stop offset="100%" stop-color="#ff4d5a"/></linearGradient></defs><path fill="url(#A)" fill-rule="evenodd" d="M149 39.945v97.364c0 6.883-5.57 12.483-12.417 12.483H12.417C5.57 149.79 0 144.192 0 137.31V39.945c0-1.378 1.113-2.497 2.483-2.497s2.483 1.118 2.483 2.497v97.364c0 4.13 3.343 7.5 7.45 7.5h59.6v-5.87c-3.03-1.276-10.788-4.117-19.867-4.117-21.71 0-38.882 4.848-39.053 4.896-.223.065-.452.097-.68.097-.534 0-1.06-.172-1.497-.504a2.51 2.51 0 0 1-.986-1.992V27.463c0-1.113.735-2.095 1.8-2.4.725-.2 17.977-5.1 40.416-5.1 12.856 0 23.033 5.043 23.46 5.255a2.5 2.5 0 0 1 1.373 2.234v95.524c7.567-4.33 25.265-13.998 42.217-19.92V6.148c-18.26 7.382-35.75 18.322-35.934 18.44-1.165.73-2.697.374-3.422-.794s-.373-2.71.8-3.44c.2-.125 20.306-12.702 40.175-20.194a2.47 2.47 0 0 1 2.287.287 2.5 2.5 0 0 1 1.07 2.052v102.357c0 1.076-.683 2.027-1.7 2.37-21.838 7.317-46.443 22.092-46.69 22.24a2.47 2.47 0 0 1-2.503.032 2.5 2.5 0 0 1-1.259-2.172V29.08c-3.047-1.28-10.812-4.114-19.867-4.114-17.644 0-32.29 3.203-37.25 4.43v104.7c6.054-1.44 20.145-4.277 37.25-4.277 10.688 0 19.524 3.485 22.447 4.783 3.288-1.21 13.917-4.783 24.736-4.783 16.643 0 29.14 2.69 34.767 4.172v-104.5l-3.15-.607c-1.348-.25-2.24-1.55-1.992-2.908s1.547-2.252 2.89-2.002l5.275 1.05a2.49 2.49 0 0 1 1.944 2.437V137.31a2.5 2.5 0 0 1-1.031 2.025c-.653.47-1.488.594-2.235.345-.147-.05-14.835-4.866-36.468-4.866-9.298 0-18.73 2.968-22.35 4.242v5.744h59.6c4.107 0 7.45-3.36 7.45-7.5V39.945a2.49 2.49 0 0 1 2.483-2.497A2.49 2.49 0 0 1 149 39.945h0zM60.166 46.33c-15.335-3.617-32.76.99-33.493 1.188a2.5 2.5 0 0 0-1.756 3.058c.298 1.116 1.3 1.85 2.396 1.85a2.51 2.51 0 0 0 .646-.085c.166-.047 16.944-4.484 31.074-1.15a2.49 2.49 0 0 0 2.985-1.862c.313-1.34-.517-2.684-1.853-2.998h0zm0 14.98c-15.335-3.615-32.76.99-33.493 1.188a2.5 2.5 0 0 0-1.756 3.058c.298 1.116 1.3 1.85 2.396 1.85a2.51 2.51 0 0 0 .646-.085c.166-.047 16.944-4.484 31.074-1.15a2.49 2.49 0 0 0 2.985-1.862c.313-1.34-.517-2.684-1.853-2.998h0zm0 14.98c-15.335-3.615-32.76.99-33.493 1.188a2.5 2.5 0 0 0-1.756 3.058 2.49 2.49 0 0 0 2.396 1.852 2.51 2.51 0 0 0 .646-.087c.166-.047 16.944-4.484 31.074-1.15a2.49 2.49 0 0 0 2.985-1.862c.313-1.34-.517-2.684-1.853-2.998h0zm0 14.98c-15.335-3.617-32.76.99-33.493 1.188a2.5 2.5 0 0 0-1.756 3.058 2.49 2.49 0 0 0 2.396 1.852 2.51 2.51 0 0 0 .646-.087c.166-.047 16.944-4.484 31.074-1.15a2.49 2.49 0 0 0 2.985-1.862c.313-1.34-.517-2.684-1.853-2.998h0zm0 14.98c-15.335-3.617-32.76.99-33.493 1.188a2.5 2.5 0 0 0-1.756 3.058 2.49 2.49 0 0 0 2.396 1.852 2.51 2.51 0 0 0 .646-.087c.166-.047 16.944-4.484 31.074-1.15a2.49 2.49 0 0 0 2.985-1.862c.313-1.34-.517-2.684-1.853-2.998h0zm24.535-5.253a2.49 2.49 0 0 0 2.218 1.363c.377 0 .765-.087 1.125-.272.147-.075 14.763-7.54 21.973-9.83a2.5 2.5 0 0 0 1.617-3.133 2.48 2.48 0 0 0-3.117-1.63c-7.594 2.414-22.112 9.83-22.727 10.143-1.222.624-1.71 2.127-1.088 3.358h0zm0-14.98a2.49 2.49 0 0 0 2.218 1.363c.377 0 .765-.087 1.125-.272.147-.075 14.763-7.54 21.973-9.83a2.5 2.5 0 0 0 1.617-3.133 2.48 2.48 0 0 0-3.117-1.63c-7.594 2.414-22.112 9.83-22.727 10.143-1.222.624-1.71 2.127-1.088 3.358h0zm0-14.98a2.49 2.49 0 0 0 2.218 1.363c.377 0 .765-.087 1.125-.272.147-.075 14.763-7.54 21.973-9.83a2.5 2.5 0 0 0 1.617-3.133 2.48 2.48 0 0 0-3.117-1.63c-7.594 2.414-22.112 9.83-22.727 10.143-1.222.624-1.71 2.127-1.088 3.358h0zm0-14.98a2.49 2.49 0 0 0 2.218 1.363c.377 0 .765-.087 1.125-.272.147-.075 14.763-7.54 21.973-9.83a2.5 2.5 0 0 0 1.617-3.133 2.48 2.48 0 0 0-3.117-1.63c-7.594 2.414-22.112 9.83-22.727 10.143-1.222.624-1.71 2.127-1.088 3.358h0zm2.218-13.616c.377 0 .765-.087 1.125-.272.147-.075 14.763-7.54 21.973-9.83a2.5 2.5 0 0 0 1.617-3.133 2.48 2.48 0 0 0-3.117-1.63c-7.594 2.414-22.112 9.83-22.727 10.143-1.222.624-1.71 2.127-1.088 3.358a2.49 2.49 0 0 0 2.218 1.363h0z"/></svg>
